<?xml version="1.0" encoding="UTF-8"?>
<map version="1.10" tiledversion="1.11.2" orientation="orthogonal" renderorder="right-down" width="10" height="10" tilewidth="32" tileheight="32" infinite="0" nextlayerid="12" nextobjectid="1">
 <tileset firstgid="1" source="base32x32.tsx"/>
 <tileset firstgid="1993" source="black_32x32.tsx"/>
 <layer id="1" name="ground" width="10" height="10" visible="0">
  <data encoding="csv">
533,530,530,530,530,530,530,530,530,531,
533,538,538,538,538,538,538,538,538,531,
533,498,498,498,498,498,498,498,498,531,
533,498,498,498,498,498,498,498,498,531,
533,498,498,498,498,498,498,498,498,531,
533,498,498,498,498,498,498,498,498,531,
533,498,498,498,498,498,498,498,498,531,
533,498,498,498,498,498,498,498,498,531,
533,498,498,498,498,498,498,498,498,531,
541,537,537,537,537,498,538,538,538,539
</data>
 </layer>
 <layer id="2" name="door" width="10" height="10" visible="0">
  <data encoding="csv">
0,0,0,0,0,0,0,0,0,0,
0,0,0,0,0,0,0,0,0,0,
0,0,0,0,0,0,0,0,0,0,
0,0,0,0,0,0,0,0,0,0,
0,0,0,0,0,0,0,0,0,0,
0,0,0,0,0,0,0,0,0,0,
0,0,0,0,0,0,0,0,0,0,
0,0,0,0,0,0,0,0,0,0,
0,0,0,0,0,520,0,0,0,0,
0,0,0,0,0,528,0,0,0,0
</data>
 </layer>
 <layer id="3" name="window" width="10" height="10" visible="0">
  <data encoding="csv">
0,596,0,0,0,0,0,0,596,0,
0,604,0,0,0,0,0,0,604,0,
0,0,0,0,0,0,0,0,0,0,
0,0,0,0,0,0,0,0,0,0,
0,0,0,0,0,0,0,0,0,0,
0,0,0,0,0,0,0,0,0,0,
0,0,0,0,0,0,0,0,0,0,
0,0,0,0,0,0,0,0,0,0,
0,0,0,0,0,0,0,0,0,0,
0,0,0,0,0,0,0,0,0,0
</data>
 </layer>
 <layer id="7" name="bed" width="10" height="10" visible="0">
  <data encoding="csv">
0,0,0,0,0,0,0,0,0,0,
0,0,0,0,0,0,0,0,0,0,
0,0,0,0,0,0,0,0,0,0,
0,0,0,0,0,0,0,0,0,0,
0,0,0,0,0,0,0,0,0,0,
0,0,0,0,0,0,0,0,0,0,
0,0,0,0,0,0,0,0,0,0,
0,0,0,0,0,0,0,0,778,0,
0,0,0,0,0,0,0,0,786,0,
0,0,0,0,0,0,0,0,0,0
</data>
 </layer>
 <layer id="4" name="table" width="10" height="10" visible="0">
  <data encoding="csv">
0,0,0,0,0,0,0,0,0,0,
0,0,0,0,0,0,0,0,0,0,
0,0,0,0,0,0,0,747,0,0,
0,0,0,0,0,0,0,755,0,0,
0,0,0,0,0,0,0,0,0,0,
0,0,0,0,0,0,0,0,0,0,
0,0,0,0,0,0,0,0,0,0,
0,0,0,0,0,0,0,0,0,0,
0,0,0,0,0,0,0,0,0,0,
0,0,0,0,0,0,0,0,0,0
</data>
 </layer>
 <layer id="5" name="book" width="10" height="10" visible="0">
  <data encoding="csv">
0,0,0,0,0,0,0,0,0,0,
0,0,0,0,0,0,0,0,0,0,
0,0,0,0,0,0,0,956,0,0,
0,0,0,0,0,0,0,0,0,0,
0,0,0,0,0,0,0,0,0,0,
0,0,0,0,0,0,0,0,0,0,
0,0,0,0,0,0,0,0,0,0,
0,0,0,0,0,0,0,0,0,0,
0,0,0,0,0,0,0,0,0,0,
0,0,0,0,0,0,0,0,0,0
</data>
 </layer>
 <layer id="6" name="book shelf" width="10" height="10" visible="0">
  <data encoding="csv">
0,0,0,0,0,0,0,0,0,0,
0,0,745,746,745,746,0,0,0,0,
0,0,753,754,753,754,0,0,0,0,
0,0,0,0,0,0,0,0,0,0,
0,0,0,0,0,0,0,0,0,0,
0,0,0,0,0,0,0,0,0,0,
0,0,0,0,0,0,0,0,0,0,
0,0,0,0,0,0,0,0,0,0,
0,0,0,0,0,0,0,0,0,0,
0,0,0,0,0,0,0,0,0,0
</data>
 </layer>
 <layer id="8" name="cloth" width="10" height="10" visible="0">
  <data encoding="csv">
0,0,0,0,0,0,0,0,0,0,
0,0,0,0,0,0,0,0,0,0,
0,0,0,0,0,0,0,0,0,0,
0,0,0,0,0,0,0,0,0,0,
0,0,0,0,0,0,0,732,733,0,
0,0,0,0,0,0,0,740,741,0,
0,0,0,0,0,0,0,0,0,0,
0,0,0,0,0,0,0,0,0,0,
0,0,0,0,0,0,0,0,0,0,
0,0,0,0,0,0,0,0,0,0
</data>
 </layer>
 <layer id="9" name="kitchen" width="10" height="10" visible="0">
  <data encoding="csv">
0,0,0,0,0,0,0,0,0,0,
0,0,0,0,0,0,0,0,0,0,
0,0,0,0,0,0,0,0,0,0,
0,0,0,0,0,0,0,0,0,0,
0,0,0,0,0,0,0,0,0,0,
0,699,700,701,0,0,0,0,0,0,
0,770,772,771,0,0,0,0,0,0,
0,0,0,0,0,0,0,0,0,0,
0,755,747,755,0,0,0,0,0,0,
0,0,0,0,0,0,0,0,0,0
</data>
 </layer>
 <layer id="10" name="clock" width="10" height="10" visible="0">
  <data encoding="csv">
0,0,0,0,0,0,811,0,0,0,
0,0,0,0,0,0,0,0,0,0,
0,0,0,0,0,0,0,0,0,0,
0,0,0,0,0,0,0,0,0,0,
0,0,0,0,0,0,0,0,0,0,
0,0,0,0,0,0,0,0,0,0,
0,0,0,0,0,0,0,0,0,0,
0,0,0,0,0,0,0,0,0,0,
0,0,0,0,0,0,0,0,0,0,
0,0,0,0,0,0,0,0,0,0
</data>
 </layer>
 <layer id="11" name="movable" width="10" height="10">
  <data encoding="csv">
1993,1993,1993,1993,1993,1993,1993,1993,1993,1993,
1993,1993,1993,1993,1993,1993,1993,1993,1993,1993,
1993,0,1993,1993,1993,1993,0,1993,0,1993,
1993,0,0,0,0,0,0,0,0,1993,
1993,0,0,0,0,0,0,1993,1993,1993,
1993,1993,1993,1993,0,0,0,1993,1993,1993,
1993,1993,1993,1993,0,0,0,0,0,1993,
1993,0,0,0,0,0,0,0,0,1993,
1993,0,1993,0,0,0,0,0,0,1993,
1993,1993,1993,1993,1993,1993,1993,1993,1993,1993
</data>
 </layer>
</map>
